!!!OTL: Shier yue
!!!ARE: Asia, China,ÿNingxia Haiyuan
!! I, 169, 2)
!!!SCT: C1836
!!!YEM: Copyright 1995, estate of Helmut Schaffrath.
**kern
*ICvox
*Ivox
*M2/4
*k[f#c#g#]
*A:
{8ee
16ee
16cc#
16b
16cc#
8a
=1
2b
=2
8cc#
8b
8a
8b
=3
8.a
16f#
4e}
=4
{8a
8a
8b
8b
=5
8f#
8a
16e
16f#
8d
=6
2B}
=7
{8f#
16f#
16a
8d
8e
=8
16f#
16a
8d
4e
=9
8a
8a
8b
8b
=10
8f#
8a
16f#
16e
8d
=11
2B}
=12
{8.f#
16a
8d
8e
=13
16f#
16a
8d
4e
=14
8.b
16a
8b
8b
=15
8f#
8a
16f#
16e
8d
=16
2B}
==
!!!AGN: Xiaodiao
!! Han
!!!ONB: ESAC (Essen Associative Code) Database: SENGANSU
!!!AMT: simple duple
!!!AIN: vox
!!!EED: Helmut Schaffrath
!!!EEV: 1.0
*-
